X: 3
T: The Flowers Of Edinburgh
R: reel
M: 4/4
L: 1/8
K: Gmaj
|: GE |D2 DE G2 GA | BGBd cBAG | FGFE DEFG | AFdF E/F/E G/F/E |
D3 E G3 A | BG B/c/d efge | dcBA GFGA | B2 G2 G2 :|
|: d2 |g2 g2 gbag | f^efd f/g/a gf | e^def gfe=d | B2 e2 e2 g/f/e |
dBGB d4 | e^def g2 fe | dcBA G2 F/G/A | B2 G2 G2 :|


Tune 2549	Setting 15827

